X:1
T:Ad Cœnam Agni, LM
T:Ad Cœnam Agni, LM
T:Mechlin Melody
T:Public Domain Courtesy of the Cyber Hymnal™
C:Mechlin Melody
Z:Public Domain
Z:Courtesy of the Cyber Hymnal™
%%score ( 1 2 ) ( 3 4 )
L:1/8
Q:1/4=113
M:4/4
K:G
V:1 treble 
V:2 treble 
V:3 bass 
V:4 bass 
V:1
 [DG]2 | [DA]2 [DG]2 [EA]2 [DB]2 | [Cc]2 [DA]2 [DB]2 [DA]2 | [DB]2 [Gc]2 [FA]2 G2 | %4
 ([DA]2 [Ec]2 [DB]2 [Gc]2 | d3) z c [GB]2 [EA]2 | [EB]2 [Ec]2 [=Fd]2 [EB]2 | %7
 [Ec]2 [EA]2 [^DB]2 [=DA]2 | [DB]2 [Cc]2 [DB]2 [EA]2 | ([DB]2 [CA]3) [B,G] | [B,G]6 |] %11
V:2
 x2 | x8 | x8 | x6 G2 | x8 | G2 F2 x5 | x8 | x8 | x8 | x6 | x6 |] %11
V:3
 [G,B,]2 | [D,F,]2 [B,,G,]2 [C,G,]2 [D,F,]2 | [E,G,]2 [F,C]2 [G,B,]2 [D,F,]2 | %3
 G,2 [C,E]2 [D,C]2 [E,B,]2 | ([D,F,]2 [C,G,]2 G,2) E,2 | [D,A,]2 [D,D]2 [G,D]2 [A,C]2 x | %6
 [^G,D]2 [A,C]2 [D,B,]2 [E,G,]2 | [A,,A,]2 [C,E,]2 [B,,F,]2 [D,F,]2 | G,2 [E,G,]2 [D,G,]2 [C,G,]2 | %9
 ([D,G,]2 [D,F,]3) [G,,G,] | [G,,G,]6 |] %11
V:4
 x2 | x8 | x8 | G,2 x6 | x4 G,2 E,2 | x9 | x8 | x8 | G,2 x6 | x6 | x6 |] %11

